X:38
T:Quadrille. TLY.038
M:6/8
L:1/8
Q:3/8=110
S:Wm.Tildesley,Swinton,Lancs.1860s.
R:.Quadrille
O:England.
A:Lancashire.
N:There is a â€˜signoâ€™ at start of first bar and at the end of the tune,
N:with a DC sign at the end also. Second note of 7th. bar is assumed to
N:be b as in third bar (ledger line missing
H:1860.
Z:vmp.Taz Tarry.
K:D
d/2e/2|f2f fef|a3f3| gbg edc|!
dfd A2 d/2e/2|f2f fef|a3f3| gbg edc|d2e d2:||!
c/2d/2|ecA ecA| g3 e3| fga agf| ecA A2 f/2g/2|!
afd afd| dâ€™3 b3|câ€™dâ€™eâ€™ dâ€™câ€™b|abaâ€^DCâ€ gfe|]

